files/2024-06-05/svg/work/ned_comics.svg

<?xml version="1.0" encoding="UTF-8" standalone="no"?>
<!-- Created with Inkscape (http://www.inkscape.org/) -->

<svg
   width="48"
   height="48"
   viewBox="0 0 48 48"
   version="1.1"
   id="svg1"
   xml:space="preserve"
   inkscape:version="1.3.2 (091e20e, 2023-11-25, custom)"
   sodipodi:docname="ned_comics.svg"
   xmlns:inkscape="http://www.inkscape.org/namespaces/inkscape"
   xmlns:sodipodi="http://sodipodi.sourceforge.net/DTD/sodipodi-0.dtd"
   xmlns="http://www.w3.org/2000/svg"
   xmlns:svg="http://www.w3.org/2000/svg"><sodipodi:namedview
     id="namedview1"
     pagecolor="#505050"
     bordercolor="#eeeeee"
     borderopacity="1"
     inkscape:showpageshadow="0"
     inkscape:pageopacity="0"
     inkscape:pagecheckerboard="0"
     inkscape:deskcolor="#505050"
     inkscape:document-units="px"
     inkscape:zoom="6.3418639"
     inkscape:cx="-7.5687527"
     inkscape:cy="44.229899"
     inkscape:window-width="1920"
     inkscape:window-height="1057"
     inkscape:window-x="-8"
     inkscape:window-y="-8"
     inkscape:window-maximized="1"
     inkscape:current-layer="svg1" /><defs
     id="defs1" /><path
     id="rect1"
     style="fill:none;stroke:#ffffff;stroke-linecap:round;stroke-linejoin:round"
     class="cls-1"
     d="m 9.5,5.5 h 29 c 2.216,0 4,1.784 4,4 v 29 c 0,2.216 -1.784,4 -4,4 h -29 c -2.216,0 -4,-1.784 -4,-4 v -29 c 0,-2.216 1.784,-4 4,-4 z m 1.636119,25.505638 5.51235,-2.568182 2.544714,5.462499 -5.512351,2.568182 -2.544712,-5.462499 v 0 M 8.6560538,23.999724 5.6532945,28.218548 m 12.3402165,-4.217513 6.005791,12.81547 m 3.61e-4,1.002507 -9.593873,4.59702 M 5.5008458,32.80407 10.006032,42.415424 M 6.6993058,29.303675 12.844368,42.415796 M 28.07683,39.487333 V 27.476308 h 3.526452 c 3.787019,-1e-6 6.85699,2.352662 6.856991,5.254822 v 1.501379 c 0,2.902165 -3.069973,5.254825 -6.85699,5.254824 z M 37.186832,20.947237 H 29.35027 V 8.9362107 l 7.836561,6e-7 m -7.83656,6.0055137 h 5.109438 M 9.4529339,20.947188 V 8.9361608 L 19.836375,20.947187 V 8.9361619 M 42.5,23.999999 H 5.4999998 M 24,42.416908 V 5.5830926 M 17.762454,24.001635 6.6995638,29.302791 5.5977234,29.831529" /></svg>

<?xml version="1.0" encoding="UTF-8"?>
<svg width="48" height="48" version="1.1" viewBox="0 0 48 48" xml:space="preserve" xmlns="http://www.w3.org/2000/svg"><path class="cls-1" d="m9.5 5.5h29c2.216 0 4 1.784 4 4v29c0 2.216-1.784 4-4 4h-29c-2.216 0-4-1.784-4-4v-29c0-2.216 1.784-4 4-4zm1.6361 25.506 5.5124-2.5682 2.5447 5.4625-5.5124 2.5682-2.5447-5.4625v0m-2.4801-7.0059-3.0028 4.2188m12.34-4.2175 6.0058 12.815m3.61e-4 1.0025-9.5939 4.597m-8.9049-9.612 4.5052 9.6114m-3.3067-13.112 6.1451 13.112m15.232-2.9285v-12.011h3.5265c3.787-1e-6 6.857 2.3527 6.857 5.2548v1.5014c0 2.9022-3.07 5.2548-6.857 5.2548zm9.11-18.54h-7.8366v-12.011l7.8366 6e-7m-7.8366 6.0055h5.1094m-25.007 6.0055v-12.011l10.383 12.011v-12.011m22.664 15.064h-37m18.5 18.417v-36.834m-6.2375 18.419-11.063 5.3012-1.1018 0.52874" fill="none" stroke="#fff" stroke-linecap="round" stroke-linejoin="round"/></svg>
